packages/foundations/assets/icons/functional/images/buildings/house_14.svg

<svg width="14" height="14" viewBox="0 0 14 14" fill="none" xmlns="http://www.w3.org/2000/svg">
<g clip-path="url(#clip0_184_197)">
<path fill-rule="evenodd" clip-rule="evenodd" d="M6.99996 1.39999C7.69696 1.39999 8.02396 1.80999 8.32496 2.10999L12.395 6.16699C12.4611 6.23322 12.5133 6.31202 12.5486 6.39876C12.5838 6.48549 12.6012 6.57839 12.6 6.67199C12.6 7.06799 12.272 7.36899 11.876 7.36899C11.712 7.36899 11.562 7.32799 11.453 7.21899L11.193 6.94499V11.89C11.193 12.272 10.838 12.6 10.497 12.6H3.50296C3.31791 12.5938 3.14235 12.5166 3.01274 12.3844C2.88313 12.2522 2.80943 12.0751 2.80696 11.89V6.94499L2.60196 7.16399C2.53754 7.22895 2.4609 7.2805 2.37646 7.31569C2.29202 7.35087 2.20144 7.36899 2.10996 7.36899C1.69996 7.36899 1.39996 7.05499 1.39996 6.64499C1.39996 6.49499 1.45496 6.34499 1.56396 6.23499L5.67496 2.10999C5.97496 1.80999 6.30296 1.39999 6.99996 1.39999ZM6.99996 2.79999L4.19996 5.59999V11.2H9.79996V5.59999L6.99996 2.79999Z" fill="#1A1C1F"/>
</g>
<defs>
<clipPath id="clip0_184_197">
<rect width="14" height="14" fill="white"/>
</clipPath>
</defs>
</svg>

<svg xmlns="http://www.w3.org/2000/svg" width="14" height="14" fill="none"><g clip-path="url(#a)"><path fill="#1A1C1F" fill-rule="evenodd" d="M7 1.4c.697 0 1.024.41 1.325.71l4.07 4.057a.703.703 0 0 1-.519 1.202c-.164 0-.314-.041-.423-.15l-.26-.274v4.945c0 .382-.355.71-.696.71H3.503a.72.72 0 0 1-.696-.71V6.945l-.205.219a.7.7 0 0 1-.492.205c-.41 0-.71-.314-.71-.724 0-.15.055-.3.164-.41L5.675 2.11c.3-.3.628-.71 1.325-.71m0 1.4L4.2 5.6v5.6h5.6V5.6z" clip-rule="evenodd"/></g><defs><clipPath id="a"><path fill="#fff" d="M0 0h14v14H0z"/></clipPath></defs></svg>
